icons/tabclose1.svg

<?xml version="1.0" encoding="UTF-8" standalone="no"?>
<svg
   viewBox="0 0 16 16"
   version="1.1"
   id="svg46"
   sodipodi:docname="tabclose1.svg"
   inkscape:version="1.2.2 (b0a8486541, 2022-12-01)"
   xmlns:inkscape="http://www.inkscape.org/namespaces/inkscape"
   xmlns:sodipodi="http://sodipodi.sourceforge.net/DTD/sodipodi-0.dtd"
   xmlns="http://www.w3.org/2000/svg"
   xmlns:svg="http://www.w3.org/2000/svg">
  <sodipodi:namedview
     id="namedview48"
     pagecolor="#ffffff"
     bordercolor="#000000"
     borderopacity="0.25"
     inkscape:showpageshadow="2"
     inkscape:pageopacity="0.0"
     inkscape:pagecheckerboard="0"
     inkscape:deskcolor="#d1d1d1"
     showgrid="false"
     inkscape:zoom="51.6875"
     inkscape:rotation="1"
     inkscape:cx="4.4630236"
     inkscape:cy="7.9233163"
     inkscape:window-width="960"
     inkscape:window-height="1008"
     inkscape:window-x="960"
     inkscape:window-y="0"
     inkscape:window-maximized="0"
     inkscape:current-layer="svg46" />
  <defs
     id="defs3051">
    <style
       type="text/css"
       id="current-color-scheme">
      .ColorScheme-Text {
        color:#232629;
      }
      .ColorScheme-NegativeText {
        color:#da4453;
      }
      </style>
  </defs>
  <path
     style="fill:#8d8f91;stroke-width:0.019347;fill-opacity:1"
     d="M 9.1608474,9.8498106 C 8.5465102,9.2347735 8.0323539,8.7236875 8.0182777,8.7140636 7.999523,8.7012409 7.6984828,8.9908568 6.8916058,9.7979789 6.2860124,10.403756 5.7713894,10.916487 5.747999,10.937381 5.7055567,10.975293 5.7053299,10.975238 5.6352918,10.910323 5.5966933,10.874548 5.4421093,10.720359 5.291772,10.567682 L 5.0184315,10.290087 6.1588813,9.1506656 C 6.7861287,8.5239838 7.2992187,8.0064455 7.2990813,8.0005806 7.2989439,7.9947155 6.7852047,7.4764328 6.1574388,6.848841 L 5.0160463,5.707765 5.3610526,5.3625297 5.7060589,5.0172945 5.8551248,5.1660522 c 0.081986,0.081817 0.592189,0.5926711 1.133784,1.1352318 0.541595,0.5425608 0.9951912,0.9870689 1.0079917,0.9877957 0.0128,7.267e-4 0.5298515,-0.5060246 1.1490029,-1.1261146 0.6191512,-0.6200899 1.1320026,-1.1300755 1.1396696,-1.1333013 0.01809,-0.00761 0.690928,0.6639139 0.684384,0.6830506 -0.0027,0.00799 -0.516909,0.5261285 -1.1426098,1.151408 L 8.6897084,8.0009942 8.8746618,8.1832631 c 0.1017242,0.100248 0.5646913,0.563124 1.0288157,1.0286136 0.4641245,0.4654895 0.8967665,0.8991523 0.9614275,0.9636953 l 0.117566,0.117351 -0.328192,0.331375 c -0.180505,0.182257 -0.339051,0.334162 -0.352324,0.337569 -0.01327,0.0034 -0.5267707,-0.49702 -1.1411076,-1.1120564 z"
     id="path953" />
</svg>

<?xml version="1.0" encoding="UTF-8"?>
<svg id="svg46" version="1.1" viewBox="0 0 16 16" xmlns="http://www.w3.org/2000/svg">
 <defs id="defs3051">
  <style id="current-color-scheme" type="text/css">.ColorScheme-Text {
        color:#232629;
      }
      .ColorScheme-NegativeText {
        color:#da4453;
      }</style>
 </defs>
 <path id="path953" d="m9.1608 9.8498c-0.61434-0.61504-1.1285-1.1261-1.1426-1.1357-0.018755-0.012823-0.31979 0.27679-1.1267 1.0839-0.60559 0.60578-1.1202 1.1185-1.1436 1.1394-0.042442 0.037912-0.042669 0.037857-0.11271-0.027058-0.038598-0.035775-0.19318-0.18996-0.34352-0.34264l-0.27334-0.2776 1.1404-1.1394c0.62725-0.62668 1.1403-1.1442 1.1402-1.1501-1.374e-4 -0.0058651-0.51388-0.52415-1.1416-1.1517l-1.1414-1.1411 0.69001-0.69047 0.14907 0.14876c0.081986 0.081817 0.59219 0.59267 1.1338 1.1352 0.5416 0.54256 0.99519 0.98707 1.008 0.9878 0.0128 7.267e-4 0.52985-0.50602 1.149-1.1261 0.61915-0.62009 1.132-1.1301 1.1397-1.1333 0.01809-0.00761 0.69093 0.66391 0.68438 0.68305-0.0027 0.00799-0.51691 0.52613-1.1426 1.1514l-1.1376 1.1369 0.18495 0.18227c0.10172 0.10025 0.56469 0.56312 1.0288 1.0286 0.46412 0.46549 0.89677 0.89915 0.96143 0.9637l0.11757 0.11735-0.32819 0.33138c-0.1805 0.18226-0.33905 0.33416-0.35232 0.33757-0.01327 0.0034-0.52677-0.49702-1.1411-1.1121z" fill="#8d8f91" stroke-width=".019347"/>
</svg>
